icons/lines/figma.svg

<svg xmlns="http://www.w3.org/2000/svg" width="24" height="24" viewBox="0 0 24 24" fill="none" stroke="currentColor" stroke-width="2" stroke-linecap="round" stroke-linejoin="round" >
  <path d="M11.9998 2H8.6998C6.7998 2 5.2998 3.5 5.2998 5.3C5.2998 7.1 6.7998 8.6 8.5998 8.6H11.9998V2Z" stroke-miterlimit="10"/>
  <path d="M12.0004 8.7H8.70039C6.90039 8.7 5.40039 10.2 5.40039 12C5.40039 13.8 6.90039 15.3 8.70039 15.3H12.0004V8.7Z" stroke-miterlimit="10"/>
  <path d="M12.0004 15.3H8.70039C6.90039 15.3 5.40039 16.8 5.40039 18.6C5.40039 20.4 6.90039 21.9 8.70039 21.9C10.5004 21.9 12.0004 20.4 12.0004 18.6V15.3Z" stroke-miterlimit="10"/>
  <path d="M12 2H15.3C17.1 2 18.6 3.5 18.6 5.3C18.6 7.1 17.1 8.6 15.3 8.6H12V2Z" stroke-miterlimit="10"/>
  <path d="M15.3 8.7C17.1 8.7 18.6 10.2 18.6 12C18.6 13.8 17.1 15.3 15.3 15.3C13.5 15.3 12 13.8 12 12C12 10.2 13.5 8.7 15.3 8.7Z" stroke-miterlimit="10"/>
  </svg>

<svg xmlns="http://www.w3.org/2000/svg" width="24" height="24" viewBox="0 0 24 24" fill="none" stroke="currentColor" stroke-width="2" stroke-linecap="round" stroke-linejoin="round">
  <path d="M12 8.6H8.6c-1.8 0-3.3-1.5-3.3-3.3S6.8 2 8.7 2h6.6c1.8 0 3.3 1.5 3.3 3.3s-1.5 3.3-3.3 3.3zV2" />
  <path d="M15.3 8.7c1.8 0 3.3 1.5 3.3 3.3s-1.5 3.3-3.3 3.3S12 13.8 12 12s1.5-3.3 3.3-3.3" />
  <path d="M8.7 15.3c-1.8 0-3.3 1.5-3.3 3.3s1.5 3.3 3.3 3.3 3.3-1.5 3.3-3.3V8.7H8.7c-1.8 0-3.3 1.5-3.3 3.3s1.5 3.3 3.3 3.3H12" />
</svg>
